packages/assets/static/images/icons/taxi.svg

<svg width="24" height="24" viewBox="0 0 24 24" xmlns="http://www.w3.org/2000/svg">
<g clip-path="url(#clip0_2076_2370)">
<path d="M22.5 10.875H21.6562L19.1925 6.57001C19.0286 6.28303 18.7917 6.04449 18.5059 5.87853C18.2201 5.71258 17.8955 5.62512 17.565 5.62501H15.7612L14.73 3.05345C14.592 2.70525 14.3525 2.40664 14.0425 2.19646C13.7325 1.98628 13.3664 1.87427 12.9919 1.87501H11.0081C10.6331 1.87371 10.2664 1.98545 9.95587 2.19567C9.64531 2.40588 9.40532 2.7048 9.26719 3.05345L8.23875 5.62501H6.435C6.1045 5.62512 5.77991 5.71258 5.4941 5.87853C5.20829 6.04449 4.97143 6.28303 4.8075 6.57001L2.34375 10.875H1.5C1.20163 10.875 0.915483 10.9935 0.704505 11.2045C0.493526 11.4155 0.375 11.7016 0.375 12C0.375 12.2984 0.493526 12.5845 0.704505 12.7955C0.915483 13.0065 1.20163 13.125 1.5 13.125H1.875V20.25C1.875 20.7473 2.07254 21.2242 2.42417 21.5758C2.77581 21.9275 3.25272 22.125 3.75 22.125H6.375C6.87228 22.125 7.34919 21.9275 7.70083 21.5758C8.05246 21.2242 8.25 20.7473 8.25 20.25V18.375H15.75V20.25C15.75 20.7473 15.9475 21.2242 16.2992 21.5758C16.6508 21.9275 17.1277 22.125 17.625 22.125H20.25C20.7473 22.125 21.2242 21.9275 21.5758 21.5758C21.9275 21.2242 22.125 20.7473 22.125 20.25V13.125H22.5C22.7984 13.125 23.0845 13.0065 23.2955 12.7955C23.5065 12.5845 23.625 12.2984 23.625 12C23.625 11.7016 23.5065 11.4155 23.2955 11.2045C23.0845 10.9935 22.7984 10.875 22.5 10.875ZM11.2613 4.12501H12.7388L13.3387 5.62501H10.6613L11.2613 4.12501ZM6.65625 7.87501H17.3438L19.0575 10.875H4.93875L6.65625 7.87501ZM6 19.875H4.125V18.375H6V19.875ZM19.875 19.875H18V18.375H19.875V19.875ZM19.875 16.125H4.125V13.125H19.875V16.125Z"/>
</g>
<defs>
<clipPath id="clip0_2076_2370">
<rect width="24" height="24"/>
</clipPath>
</defs>
</svg>

<svg viewBox="0 0 24 24" xmlns="http://www.w3.org/2000/svg" aria-hidden="true" fill="currentColor" height="24px" width="24px"><g clip-path="url(#a)"><path d="M22.5 10.875h-.844L19.193 6.57a1.88 1.88 0 0 0-1.628-.945h-1.804L14.73 3.053a1.87 1.87 0 0 0-1.738-1.178h-1.984a1.865 1.865 0 0 0-1.74 1.178l-1.03 2.572H6.436a1.88 1.88 0 0 0-1.627.945l-2.464 4.305H1.5a1.125 1.125 0 1 0 0 2.25h.375v7.125a1.875 1.875 0 0 0 1.875 1.875h2.625A1.875 1.875 0 0 0 8.25 20.25v-1.875h7.5v1.875a1.875 1.875 0 0 0 1.875 1.875h2.625a1.875 1.875 0 0 0 1.875-1.875v-7.125h.375a1.125 1.125 0 1 0 0-2.25m-11.239-6.75h1.478l.6 1.5H10.66zm-4.605 3.75h10.688l1.713 3H4.94zm-.656 12H4.125v-1.5H6zm13.875 0H18v-1.5h1.875zm0-3.75H4.125v-3h15.75z"/></g><defs><clipPath id="a"><path d="M0 0h24v24H0z"/></clipPath></defs></svg>
